dist/img/svg/pen2_icon.svg

<svg xmlns="http://www.w3.org/2000/svg" viewBox="0 0 19.5 19.49"><style>.st0{fill:#000}</style><path class="st0" d="M14.75 5.75c-.56 0-1-.45-1-1 0-.56.44-1 1-1 .55 0 1 .44 1 1 0 .55-.45 1-1 1"/><path class="st0" d="M18 9.43l-5.25 5.25-7.94-7.93 5.25-5.25H18zm-8.25 8.25L1.81 9.75l1.94-1.94 7.93 7.94zm9.75-7.93v-9c0-.42-.34-.75-.75-.75h-9c-.2 0-.4.08-.53.21l-9 9c-.15.15-.22.34-.22.54s.07.38.22.53l9 9c.29.28.77.28 1.06 0l9-9c.14-.14.22-.34.22-.53"/></svg>

<svg xmlns="http://www.w3.org/2000/svg" viewBox="0 0 19.5 19.49">
	<style type="text/css">
		.st0{fill:#000000;}
	</style>
	<path class="st0" d="M14.75,5.75C14.19,5.75 13.75,5.3 13.75,4.75C13.75,4.19 14.19,3.75 14.75,3.75C15.3,3.75 15.75,4.19 15.75,4.75C15.75,5.3 15.3,5.75 14.75,5.75"/>
	<path class="st0" d="M18,9.43L12.75,14.68L4.81,6.75L10.06,1.5L18,1.5ZM9.75,17.68L1.81,9.75L3.75,7.81L11.68,15.75ZM19.5,9.75L19.5,0.75C19.5,0.33 19.16,0 18.75,0L9.75,0C9.55,0 9.35,0.08 9.22,0.21L0.22,9.21C0.07,9.36 0,9.55 0,9.75C0,9.95 0.07,10.13 0.22,10.28L9.22,19.28C9.51,19.56 9.99,19.56 10.28,19.28L19.28,10.28C19.42,10.14 19.5,9.94 19.5,9.75"/>
</svg>
